X:1
T:Gott Sei Dank, 77.77
T:Gott Sei Dank, 77.77
T:Johann Anastius Freylinghausen, 1704
T:Public Domain Courtesy of the Cyber Hymnal™
C:Johann Anastius Freylinghausen, 1704
Z:Public Domain
Z:Courtesy of the Cyber Hymnal™
%%score ( 1 2 ) ( 3 4 )
L:1/8
Q:1/4=110
M:4/4
K:C
V:1 treble 
V:2 treble 
V:3 bass 
V:4 bass 
V:1
 (CD) (EF) [DG]2 [CG]2 | [CA]2 [FB]2 [Ec]4 | (Bc) [Dd]2 (GA) [DB]2 | [EA]2 A2 [B,G]4 | %4
 [CG]2 (cB) A2 [EG]2 | [DF]2 [CE]2 [B,D]4 | [CG]2 [A,C]2 [B,F]2 [CE]2 | [CD]2 [B,D]2 C4 |] %8
V:2
 x2 C2 x4 | x8 | D2 x E2 x3 | x2 (DC) x4 | x2 C2 (CD) x2 | x8 | x8 | x4 C4 |] %8
V:3
 [C,E,]2 [A,,A,]2 (G,F,) [C,E,]2 | (F,E,) [D,G,]2 [C,G,]4 | G,2 [^F,A,]2 [E,B,]2 [B,,G,]2 | %3
 [C,G,]2 [D,^F,]2 [G,,G,]4 | [C,E,]2 [E,G,]2 (A,B,) [C,C]2 | [D,A,]2 G,2 G,4 | %6
 [E,G,]2 F,2 [D,G,]2 [C,G,]2 | [F,,A,]2 (G,F,) [C,E,]4 |] %8
V:4
 x4 B,,2 x2 | x8 | G,2 x6 | x8 | x4 F,2 x2 | x2 (E,F,) G,4 | x8 | x2 G,,2 x4 |] %8

